brandFactory_export/1.Light/Flecha izquierda_1Light.svg

<?xml version="1.0" encoding="UTF-8"?>
<svg width="24px" height="24px" viewBox="0 0 24 24" version="1.1" xmlns="http://www.w3.org/2000/svg" xmlns:xlink="http://www.w3.org/1999/xlink">
    <title>1.Light/Flecha izquierda_1Light</title>
    <g id="Symbols" stroke="none" stroke-width="1" fill="none" fill-rule="evenodd">
        <g id="1.Light/Flecha-izquierda_1Light" fill="#5CB615" fill-rule="nonzero">
            <path d="M17.8739496,23.6235294 C17.6453782,23.6235294 17.4235294,23.5394958 17.2554622,23.3882353 L5.32268908,12.5882353 C5.13781513,12.4235294 5.0302521,12.1848739 5.0302521,11.9361345 C5.0302521,11.6806723 5.13781513,11.4386555 5.32268908,11.2638655 L17.2554622,0.262184874 C17.6151261,-0.087394958 18.1865546,-0.087394958 18.5495798,0.262184874 C18.8991597,0.621848739 18.8991597,1.18991597 18.5495798,1.54957983 L7.28907563,11.9159664 L18.4957983,22.0470588 C18.8521008,22.4 18.8554622,22.9714286 18.502521,23.3277311 L18.4957983,23.3344538 C18.3310924,23.502521 18.1092437,23.6067227 17.8739496,23.6235294 Z" id="Path"></path>
        </g>
    </g>
</svg>

<svg width="24" height="24" viewBox="0 0 24 24" xmlns="http://www.w3.org/2000/svg"><path d="M17.874 23.624a.927.927 0 01-.619-.236l-11.932-10.8a.876.876 0 01-.293-.652c0-.255.108-.497.293-.672L17.255.262a.93.93 0 011.295 0c.35.36.35.928 0 1.288L7.29 11.916l11.206 10.131c.356.353.36.924.007 1.28l-.007.007a.97.97 0 01-.622.29z" fill="#5CB615" fill-rule="nonzero"/></svg>
